assets/assets/svg/instagram_black_border.svg

<svg fill="none" height="23" viewBox="0 0 23 23" width="23" xmlns="http://www.w3.org/2000/svg"><g fill="#304351"><path d="m16.3192 22.4008h-10.23752c-3.34493 0-6.08168-2.7367-6.08168-6.0816v-10.23752c0-3.34493 2.73675-6.08168 6.08168-6.08168h10.23752c3.3449 0 6.0816 2.73675 6.0816 6.08168v10.23752c0 3.3449-2.7367 6.0816-6.0816 6.0816zm-10.23752-20.37357c-2.22995 0-4.05445 1.8245-4.05445 4.05445v10.23752c0 2.2299 1.8245 4.0544 4.05445 4.0544h10.23752c2.2299 0 4.0544-1.8245 4.0544-4.0544v-10.23752c0-2.22995-1.8245-4.05445-4.0544-4.05445z"/><path d="m11.1497 17.0287c-3.24354 0-5.77757-2.6354-5.77757-5.7776 0-3.24356 2.63539-5.7776 5.77757-5.7776 3.1422 0 5.7776 2.6354 5.7776 5.7776.1014 3.1422-2.534 5.7776-5.7776 5.7776zm0-9.62933c-2.12856 0-3.75034 1.72314-3.75034 3.75033 0 2.0273 1.72314 3.7504 3.75034 3.7504s3.7504-1.7231 3.7504-3.7504c0-2.02719-1.6218-3.75033-3.7504-3.75033z"/><path d="m17.9916 6.89255c.6998 0 1.267-.56726 1.267-1.26701 0-.69976-.5672-1.26702-1.267-1.26702-.6997 0-1.267.56726-1.267 1.26702 0 .69975.5673 1.26701 1.267 1.26701z"/></g></svg>

<svg width="23" height="23" viewBox="0 0 23 23" fill="none" xmlns="http://www.w3.org/2000/svg">
<path d="M16.3192 22.4008H6.08168C2.73675 22.4008 0 19.6641 0 16.3192V6.08168C0 2.73675 2.73675 0 6.08168 0H16.3192C19.6641 0 22.4008 2.73675 22.4008 6.08168V16.3192C22.4008 19.6641 19.6641 22.4008 16.3192 22.4008ZM6.08168 2.02723C3.85173 2.02723 2.02723 3.85173 2.02723 6.08168V16.3192C2.02723 18.5491 3.85173 20.3736 6.08168 20.3736H16.3192C18.5491 20.3736 20.3736 18.5491 20.3736 16.3192V6.08168C20.3736 3.85173 18.5491 2.02723 16.3192 2.02723H6.08168Z" fill="#304351"/>
<path d="M11.1497 17.0287C7.90616 17.0287 5.37213 14.3933 5.37213 11.2511C5.37213 8.00754 8.00752 5.4735 11.1497 5.4735C14.2919 5.4735 16.9273 8.1089 16.9273 11.2511C17.0287 14.3933 14.3933 17.0287 11.1497 17.0287ZM11.1497 7.39937C9.02114 7.39937 7.39936 9.12251 7.39936 11.1497C7.39936 13.177 9.1225 14.9001 11.1497 14.9001C13.1769 14.9001 14.9001 13.177 14.9001 11.1497C14.9001 9.12251 13.2783 7.39937 11.1497 7.39937Z" fill="#304351"/>
<path d="M17.9916 6.89255C18.6914 6.89255 19.2586 6.32529 19.2586 5.62554C19.2586 4.92578 18.6914 4.35852 17.9916 4.35852C17.2919 4.35852 16.7246 4.92578 16.7246 5.62554C16.7246 6.32529 17.2919 6.89255 17.9916 6.89255Z" fill="#304351"/>
</svg>
